X: 9732
T: Deirdre
R: waltz
M: 3/4
K: Eminor
|:EF GA ge|c3 e ed|B2 dB AG|F2 G2 FG|
EF GA ge|c3 e ed|B2 dB AG|1 F6:|2 F3 F GA|:
|:BE ED E2|cE ED E2|B2 dB AG|F2 G2 GA|
BE ED E2|cE ED E2|B2 dB AG|1 F3 F GA:|2 F6||
|:Be eg fe|c2 eg fe|B2 eg fe|ag gf fe|
B2 eg fe|c2 G2 GA|BG cG BG|A6:|
|:B6|G6|B2 d3 B|A2 G2 GA|
B6|G4 GA|B2 d3 B|1 A6:|2 A6||

